src/assets/sumo-logo.svg

<svg clip-rule="evenodd" fill-rule="evenodd" stroke-miterlimit="10" viewBox="0 0 4359 2999" xmlns="http://www.w3.org/2000/svg" xmlns:xlink="http://www.w3.org/1999/xlink"><clipPath id="a"><path clip-rule="evenodd" d="m17.275 0h3750.38v4171.21h-3750.38z"/></clipPath><clipPath id="b"><path clip-rule="nonzero" d="m4.146 451.545c0 247.724 200.821 448.544 448.545 448.544 247.725 0 448.545-200.82 448.545-448.544s-200.82-448.545-448.545-448.545c-247.724 0-448.545 200.821-448.545 448.545z"/></clipPath><g transform="matrix(1.16221 0 0 .718898 -20.0771 0)"><path d="m17.275 0h3750.38v4171.21h-3750.38z" fill="none"/><g clip-path="url(#a)"><g clip-path="url(#b)" transform="matrix(3.6197007496 0 0 5.851772476 848.24908333616 -873.7440742)"><path d="m-19.682-3.963c-25.255 0-45.726 22.768-45.726 50.855 0 28.086 20.471 50.855 45.726 50.855 25.253.001 45.725-22.768 45.725-50.855s-20.471-50.855-45.725-50.855" fill="#1c1918" fill-rule="nonzero" transform="matrix(.922067 -.38703 -.38703 -.922067 622.1 725.055)"/><path d="m50.67-53.506c23.957 0 43.377 22.719 43.376 50.744 0 28.025-19.42 50.745-43.376 50.745-23.957 0-43.377-22.719-43.376-50.745-.001-28.025 19.419-50.744 43.376-50.744" fill="#1c1918" fill-rule="nonzero" transform="matrix(-.0544293 .998518 .998518 .0544293 481.656 584.045)"/><path d="m0 139.476c100.462 0 238.403-220.774 409.81-220.774 179.691-.055 401.171 302.127 497.489 302.127" fill="none" stroke="#4277bc" stroke-width="19.81" transform="translate(-19.4214 780.261)"/><path d="m0 14.673c79.436 0 188.507 157.135 324.04 157.135 142.083.04 358.265-328.983 434.423-328.983" fill="none" stroke="#f57f1f" stroke-width="19.81" transform="translate(26.5548 322.602)"/><g fill="#1c1918" fill-rule="nonzero"><path d="m-11.022-8.183c-6.359 0-11.515 5.155-11.514 11.514 0 6.36 5.155 11.515 11.514 11.514 6.36.001 11.515-5.155 11.514-11.514 0-6.359-5.155-11.515-11.514-11.514" transform="matrix(.289291 -.957241 -.957241 -.289291 635.82 469.806)"/><path d="m-91.185-67.7c-43.209 0-78.235 42.648-78.235 95.258 0 52.609 35.027 95.258 78.235 95.258 43.209 0 78.235-42.648 78.235-95.258s-35.026-95.258-78.235-95.258" transform="matrix(.289298 -.957239 -.957239 -.289298 603.894 538.737)"/><path d="m-42.416-31.492c-24.473 0-44.311 19.839-44.311 44.311 0 24.473 19.838 44.311 44.311 44.311 24.472.001 44.311-19.838 44.311-44.311.001-24.472-19.838-44.311-44.311-44.311" transform="matrix(.289298 -.957239 -.957239 -.289298 609.662 480.183)"/><path d="m43.938-49.059c-13.067 0-23.659 19.791-23.659 44.205s10.592 44.204 23.659 44.204c13.066 0 23.658-19.791 23.658-44.205s-10.592-44.204-23.658-44.204" transform="matrix(-.109818 .993952 .993952 .109818 523.704 499.986)"/><path d="m27.634-78.708c-13.067 0-23.659 19.791-23.66 44.205 0 24.413 10.593 44.205 23.66 44.205 13.065 0 23.658-19.791 23.659-44.205-.001-24.414-10.593-44.205-23.659-44.205" transform="matrix(-.780525 .625124 .625124 .780525 505.122 524.676)"/><path d="m21.339-82.918c13.066-.001 23.658 19.791 23.658 44.205.001 24.413-10.592 44.204-23.658 44.204-13.067.001-23.659-19.791-23.659-44.205 0-24.413 10.592-44.204 23.659-44.204" transform="matrix(-.875775 .482719 .482719 .875775 704.108 647.095)"/><path d="m35.849-70.07c13.066 0 23.658 19.792 23.659 44.205-.001 24.414-10.593 44.205-23.659 44.205-13.067.001-23.659-19.791-23.659-44.205 0-24.413 10.593-44.205 23.659-44.205" transform="matrix(-.585108 .810955 .810955 .585108 676.815 570.836)"/><path d="m18.836-13.985c10.868.001 19.678 8.811 19.678 19.678-.001 10.868-8.811 19.678-19.678 19.677-10.867 0-19.678-8.81-19.678-19.677.001-10.867 8.811-19.678 19.678-19.678" transform="matrix(.289291 .957241 .957241 -.289291 427.875 454.844)"/><path d="m1.969-39.257c-10.867.001-19.677 8.81-19.678 19.678.001 10.867 8.81 19.677 19.678 19.678 10.867-.001 19.678-8.811 19.678-19.678-.001-10.867-8.811-19.678-19.678-19.678" transform="matrix(-.994981 .100062 .100062 .994981 687.576 682.995)"/><path d="m24.058-7.12c15.359.001 27.811 19.791 27.811 44.205.001 24.414-12.451 44.204-27.811 44.205-15.36-.001-27.812-19.791-27.812-44.205-.001-24.414 12.452-44.205 27.812-44.205" transform="matrix(.838937 .544229 .544229 -.838937 401.768 675.632)"/><path d="m-17.39-16.197c-4.537 0-8.216 7.805-8.216 17.433 0 9.629 3.679 17.434 8.216 17.434 4.538 0 8.216-7.805 8.216-17.434.001-9.628-3.678-17.434-8.216-17.433" transform="matrix(.0708965 -.997484 -.997484 -.0708965 415.333 674.207)"/><path d="m8.58-.859c-15.42-.001-27.92 19.366-27.921 43.255.001 23.889 12.501 43.255 27.92 43.255 15.421 0 27.92-19.366 27.921-43.255 0-23.89-12.501-43.255-27.92-43.255" transform="matrix(.980132 .198345 .198345 -.980132 580.429 770.778)"/><path d="m13.733-28.174c4.537 0 8.216 7.805 8.216 17.434 0 9.628-3.678 17.433-8.216 17.434-4.538-.001-8.217-7.806-8.216-17.434-.001-9.629 3.679-17.434 8.216-17.434" transform="matrix(-.616039 .787716 .787716 .616039 605.132 773.571)"/></g></g><path d="m-448.545-448.545c-247.724 0-448.545 200.82-448.545 448.545 0 247.724 200.821 448.545 448.545 448.545s448.545-200.821 448.545-448.545c0-247.725-200.821-448.545-448.545-448.545z" fill="none" stroke="#fff" stroke-width="20" transform="matrix(0 -5.7959 -3.58514 0 2471.77061174 -806.08331719)"/><g fill="#1c1918" fill-rule="nonzero"><path d="m.464-.186c0-.104-.046-.15-.18-.211-.105-.048-.131-.073-.131-.126 0-.051.035-.093.114-.093.055 0 .107.022.145.051l.015-.094c-.04-.023-.09-.039-.157-.039-.125 0-.21.071-.21.182 0 .099.049.142.179.201.104.047.132.073.132.136 0 .067-.051.105-.123.105-.069 0-.134-.028-.181-.059l-.014.096c.051.027.118.045.193.045.129 0 .218-.075.218-.194z" transform="matrix(516.26016 0 0 834.6096 181.2390063 2932.46286792)"/><path d="m.613-.266v-.424h-.094v.42c0 .125-.059.197-.176.197-.119 0-.173-.08-.173-.2v-.417h-.094v.429c0 .168.1.274.267.274s.27-.105.27-.279z" transform="matrix(516.26016 0 0 834.6096 579.41182498 2932.46286792)"/><path d="m.835 0-.054-.69h-.115l-.215.566-.215-.566h-.116l-.055.69h.088l.042-.557.216.56h.075l.216-.56.043.557z" transform="matrix(516.26016 0 0 834.6096 1068.95910684 2932.46286792)"/><path d="m.691-.346c0-.213-.122-.357-.317-.357-.194 0-.319.145-.319.359 0 .213.123.357.317.357.195 0 .319-.146.319-.359zm-.097.001c0 .166-.084.272-.221.272-.136 0-.221-.106-.221-.272s.084-.272.221-.272c.136 0 .221.106.221.272z" transform="matrix(516.26016 0 0 834.6096 1667.4587933 2932.46286792)"/></g></g></g></svg>

<?xml version="1.0" encoding="UTF-8" standalone="no"?>
<!DOCTYPE svg PUBLIC "-//W3C//DTD SVG 1.1//EN" "http://www.w3.org/Graphics/SVG/1.1/DTD/svg11.dtd">
<svg width="100%" height="100%" viewBox="0 0 4359 2999" version="1.1" xmlns="http://www.w3.org/2000/svg" xmlns:xlink="http://www.w3.org/1999/xlink" xml:space="preserve" xmlns:serif="http://www.serif.com/" style="fill-rule:evenodd;clip-rule:evenodd;stroke-miterlimit:10;">
    <g id="Artboard1" transform="matrix(1.16221,0,0,0.718898,-20.0771,0)">
        <rect x="17.275" y="0" width="3750.38" height="4171.21" style="fill:none;"/>
        <clipPath id="_clip1">
            <rect x="17.275" y="0" width="3750.38" height="4171.21"/>
        </clipPath>
        <g clip-path="url(#_clip1)">
            <g id="Layer-1" serif:id="Layer 1" transform="matrix(3.58514,0,0,5.7959,848.81,-272.489)">
                <g transform="matrix(1.00964,0,0,1.00964,-0.156456,-103.738)">
                    <clipPath id="_clip2">
                        <path d="M4.146,451.545C4.146,699.269 204.967,900.089 452.691,900.089C700.416,900.089 901.236,699.269 901.236,451.545C901.236,203.821 700.416,3 452.691,3C204.967,3 4.146,203.821 4.146,451.545Z" clip-rule="nonzero"/>
                    </clipPath>
                    <g clip-path="url(#_clip2)">
                        <g transform="matrix(0.922067,-0.38703,-0.38703,-0.922067,622.1,725.055)">
                            <path d="M-19.682,-3.963C-44.937,-3.963 -65.408,18.805 -65.408,46.892C-65.408,74.978 -44.937,97.747 -19.682,97.747C5.571,97.748 26.043,74.979 26.043,46.892C26.043,18.805 5.572,-3.963 -19.682,-3.963" style="fill:rgb(28,25,24);fill-rule:nonzero;"/>
                        </g>
                        <g transform="matrix(-0.0544293,0.998518,0.998518,0.0544293,481.656,584.045)">
                            <path d="M50.67,-53.506C74.627,-53.506 94.047,-30.787 94.046,-2.762C94.046,25.263 74.626,47.983 50.67,47.983C26.713,47.983 7.293,25.264 7.294,-2.762C7.293,-30.787 26.713,-53.506 50.67,-53.506" style="fill:rgb(28,25,24);fill-rule:nonzero;"/>
                        </g>
                        <g transform="matrix(1,0,0,1,-19.4214,780.261)">
                            <path d="M0,139.476C100.462,139.476 238.403,-81.298 409.81,-81.298C589.501,-81.353 810.981,220.829 907.299,220.829" style="fill:none;fill-rule:nonzero;stroke:rgb(66,119,188);stroke-width:19.81px;"/>
                        </g>
                        <g transform="matrix(1,0,0,1,26.5548,322.602)">
                            <path d="M0,14.673C79.436,14.673 188.507,171.808 324.04,171.808C466.123,171.848 682.305,-157.175 758.463,-157.175" style="fill:none;fill-rule:nonzero;stroke:rgb(245,127,31);stroke-width:19.81px;"/>
                        </g>
                        <g transform="matrix(0.289291,-0.957241,-0.957241,-0.289291,635.82,469.806)">
                            <path d="M-11.022,-8.183C-17.381,-8.183 -22.537,-3.028 -22.536,3.331C-22.536,9.691 -17.381,14.846 -11.022,14.845C-4.662,14.846 0.493,9.69 0.492,3.331C0.492,-3.028 -4.663,-8.184 -11.022,-8.183" style="fill:rgb(28,25,24);fill-rule:nonzero;"/>
                        </g>
                        <g transform="matrix(0.289298,-0.957239,-0.957239,-0.289298,603.894,538.737)">
                            <path d="M-91.185,-67.7C-134.394,-67.7 -169.42,-25.052 -169.42,27.558C-169.42,80.167 -134.393,122.816 -91.185,122.816C-47.976,122.816 -12.95,80.168 -12.95,27.558C-12.95,-25.052 -47.976,-67.7 -91.185,-67.7" style="fill:rgb(28,25,24);fill-rule:nonzero;"/>
                        </g>
                        <g transform="matrix(0.289298,-0.957239,-0.957239,-0.289298,609.662,480.183)">
                            <path d="M-42.416,-31.492C-66.889,-31.492 -86.727,-11.653 -86.727,12.819C-86.727,37.292 -66.889,57.13 -42.416,57.13C-17.944,57.131 1.895,37.292 1.895,12.819C1.896,-11.653 -17.943,-31.492 -42.416,-31.492" style="fill:rgb(28,25,24);fill-rule:nonzero;"/>
                        </g>
                        <g transform="matrix(-0.109818,0.993952,0.993952,0.109818,523.704,499.986)">
                            <path d="M43.938,-49.059C30.871,-49.059 20.279,-29.268 20.279,-4.854C20.279,19.56 30.871,39.35 43.938,39.35C57.004,39.35 67.596,19.559 67.596,-4.855C67.596,-29.269 57.004,-49.059 43.938,-49.059" style="fill:rgb(28,25,24);fill-rule:nonzero;"/>
                        </g>
                        <g transform="matrix(-0.780525,0.625124,0.625124,0.780525,505.122,524.676)">
                            <path d="M27.634,-78.708C14.567,-78.708 3.975,-58.917 3.974,-34.503C3.974,-10.09 14.567,9.702 27.634,9.702C40.699,9.702 51.292,-10.089 51.293,-34.503C51.292,-58.917 40.7,-78.708 27.634,-78.708" style="fill:rgb(28,25,24);fill-rule:nonzero;"/>
                        </g>
                        <g transform="matrix(-0.875775,0.482719,0.482719,0.875775,704.108,647.095)">
                            <path d="M21.339,-82.918C34.405,-82.919 44.997,-63.127 44.997,-38.713C44.998,-14.3 34.405,5.491 21.339,5.491C8.272,5.492 -2.32,-14.3 -2.32,-38.714C-2.32,-63.127 8.272,-82.918 21.339,-82.918" style="fill:rgb(28,25,24);fill-rule:nonzero;"/>
                        </g>
                        <g transform="matrix(-0.585108,0.810955,0.810955,0.585108,676.815,570.836)">
                            <path d="M35.849,-70.07C48.915,-70.07 59.507,-50.278 59.508,-25.865C59.507,-1.451 48.915,18.34 35.849,18.34C22.782,18.341 12.19,-1.451 12.19,-25.865C12.19,-50.278 22.783,-70.07 35.849,-70.07" style="fill:rgb(28,25,24);fill-rule:nonzero;"/>
                        </g>
                        <g transform="matrix(0.289291,0.957241,0.957241,-0.289291,427.875,454.844)">
                            <path d="M18.836,-13.985C29.704,-13.984 38.514,-5.174 38.514,5.693C38.513,16.561 29.703,25.371 18.836,25.37C7.969,25.37 -0.842,16.56 -0.842,5.693C-0.841,-5.174 7.969,-13.985 18.836,-13.985" style="fill:rgb(28,25,24);fill-rule:nonzero;"/>
                        </g>
                        <g transform="matrix(-0.994981,0.100062,0.100062,0.994981,687.576,682.995)">
                            <path d="M1.969,-39.257C-8.898,-39.256 -17.708,-30.447 -17.709,-19.579C-17.708,-8.712 -8.899,0.098 1.969,0.099C12.836,0.098 21.647,-8.712 21.647,-19.579C21.646,-30.446 12.836,-39.257 1.969,-39.257" style="fill:rgb(28,25,24);fill-rule:nonzero;"/>
                        </g>
                        <g transform="matrix(0.838937,0.544229,0.544229,-0.838937,401.768,675.632)">
                            <path d="M24.058,-7.12C39.417,-7.119 51.869,12.671 51.869,37.085C51.87,61.499 39.418,81.289 24.058,81.29C8.698,81.289 -3.754,61.499 -3.754,37.085C-3.755,12.671 8.698,-7.12 24.058,-7.12" style="fill:rgb(28,25,24);fill-rule:nonzero;"/>
                        </g>
                        <g transform="matrix(0.0708965,-0.997484,-0.997484,-0.0708965,415.333,674.207)">
                            <path d="M-17.39,-16.197C-21.927,-16.197 -25.606,-8.392 -25.606,1.236C-25.606,10.865 -21.927,18.67 -17.39,18.67C-12.852,18.67 -9.174,10.865 -9.174,1.236C-9.173,-8.392 -12.852,-16.198 -17.39,-16.197" style="fill:rgb(28,25,24);fill-rule:nonzero;"/>
                        </g>
                        <g transform="matrix(0.980132,0.198345,0.198345,-0.980132,580.429,770.778)">
                            <path d="M8.58,-0.859C-6.84,-0.86 -19.34,18.507 -19.341,42.396C-19.34,66.285 -6.84,85.651 8.579,85.651C24,85.651 36.499,66.285 36.5,42.396C36.5,18.506 23.999,-0.859 8.58,-0.859" style="fill:rgb(28,25,24);fill-rule:nonzero;"/>
                        </g>
                        <g transform="matrix(-0.616039,0.787716,0.787716,0.616039,605.132,773.571)">
                            <path d="M13.733,-28.174C18.27,-28.174 21.949,-20.369 21.949,-10.74C21.949,-1.112 18.271,6.693 13.733,6.694C9.195,6.693 5.516,-1.112 5.517,-10.74C5.516,-20.369 9.196,-28.174 13.733,-28.174" style="fill:rgb(28,25,24);fill-rule:nonzero;"/>
                        </g>
                    </g>
                </g>
                <g transform="matrix(0,-1,-1,0,452.691,-92.0641)">
                    <path d="M-448.545,-448.545C-696.269,-448.545 -897.09,-247.725 -897.09,0C-897.09,247.724 -696.269,448.545 -448.545,448.545C-200.821,448.545 0,247.724 0,0C0,-247.725 -200.821,-448.545 -448.545,-448.545Z" style="fill:none;fill-rule:nonzero;stroke:white;stroke-width:20px;"/>
                </g>
                <g transform="matrix(1,0,0,1,-883.265,32.8318)">
                    <g transform="matrix(144,0,0,144,697.06,520.137)">
                        <path d="M0.464,-0.186C0.464,-0.29 0.418,-0.336 0.284,-0.397C0.179,-0.445 0.153,-0.47 0.153,-0.523C0.153,-0.574 0.188,-0.616 0.267,-0.616C0.322,-0.616 0.374,-0.594 0.412,-0.565L0.427,-0.659C0.387,-0.682 0.337,-0.698 0.27,-0.698C0.145,-0.698 0.06,-0.627 0.06,-0.516C0.06,-0.417 0.109,-0.374 0.239,-0.315C0.343,-0.268 0.371,-0.242 0.371,-0.179C0.371,-0.112 0.32,-0.074 0.248,-0.074C0.179,-0.074 0.114,-0.102 0.067,-0.133L0.053,-0.037C0.104,-0.01 0.171,0.008 0.246,0.008C0.375,0.008 0.464,-0.067 0.464,-0.186Z" style="fill:rgb(28,25,24);fill-rule:nonzero;"/>
                    </g>
                    <g transform="matrix(144,0,0,144,808.122,520.137)">
                        <path d="M0.613,-0.266L0.613,-0.69L0.519,-0.69L0.519,-0.27C0.519,-0.145 0.46,-0.073 0.343,-0.073C0.224,-0.073 0.17,-0.153 0.17,-0.273L0.17,-0.69L0.076,-0.69L0.076,-0.261C0.076,-0.093 0.176,0.013 0.343,0.013C0.51,0.013 0.613,-0.092 0.613,-0.266Z" style="fill:rgb(28,25,24);fill-rule:nonzero;"/>
                    </g>
                    <g transform="matrix(144,0,0,144,944.671,520.137)">
                        <path d="M0.835,-0L0.781,-0.69L0.666,-0.69L0.451,-0.124L0.236,-0.69L0.12,-0.69L0.065,-0L0.153,-0L0.195,-0.557L0.411,0.003L0.486,0.003L0.702,-0.557L0.745,-0L0.835,-0Z" style="fill:rgb(28,25,24);fill-rule:nonzero;"/>
                    </g>
                    <g transform="matrix(144,0,0,144,1111.61,520.137)">
                        <path d="M0.691,-0.346C0.691,-0.559 0.569,-0.703 0.374,-0.703C0.18,-0.703 0.055,-0.558 0.055,-0.344C0.055,-0.131 0.178,0.013 0.372,0.013C0.567,0.013 0.691,-0.133 0.691,-0.346ZM0.594,-0.345C0.594,-0.179 0.51,-0.073 0.373,-0.073C0.237,-0.073 0.152,-0.179 0.152,-0.345C0.152,-0.511 0.236,-0.617 0.373,-0.617C0.509,-0.617 0.594,-0.511 0.594,-0.345Z" style="fill:rgb(28,25,24);fill-rule:nonzero;"/>
                    </g>
                </g>
            </g>
        </g>
    </g>
</svg>
